X:1
T:Dance of the Sugarplum Fairy
%%score 1 2 3 4
L:1/8
M:4/4
K:C
V:1 treble transpose=-2 nm="Flugelhorn" snm="Flghn."
V:2 treble transpose=-2 nm="Flugelhorn" snm="Flghn."
V:3 tenor nm="Trombone" snm="Tbn."
V:4 bass nm="Tuba" snm="Tba."
V:1
[K:D] z2 .B2 z2 .c2 | z2 .d2 z2 .^A2 :|S!mp! z2 .d.B .d2 .c2 | .^A2 .B2 .=A.A .A2 | %4
 .^G.G .G2 .=G.G .G2 | (.F.B.G.B .F2) z2 | z2 .d.B .d2 .c2 | .g2 .f2 .d.d .d2 | .c.c .c2 .B.B .B2 | %9
 (.^A.c.B.c .A2) z2 | z2 .d.B .d2 .c2 | .^A2 .B2 .=A.A .A2 | .^G.G .G2 .=G.G .G2 | %13
 (.F.B.G.B .F2) z2 | z2 .B.^E .B2 .^A2 | z2 .A.^D .A2 .^G2 | z2 .G.C .G2 .F2 | %17
 z2!<(! (.F/.^A/.c/.f/!<)!!f! !^!B2)!fine! |] z2!D.S.! |] %19
V:2
[K:D] z2 .F2 z2 .G2 | z2 .A2 z2 .E2 :|!mp! z2 .B.F .B2 .G2 | .E2 .=F2 .^D.D .D2 | %4
 .F.F .F2 .C.C .C2 | .D.D.E.E .D2 z2 | z2 .B.G .^A2 .A2 | .c2 .d2 .^G.G .G2 | .A.A .A2 .^G.G .G2 | %9
 .F.F.^G.G .F2 z2 | z2 .B.F .B2 .G2 | .E2 .=F2 .^D.D .D2 | .F.F .F2 .^E.E .E2 | .D.D.E.E .D2 z2 | %14
 z2 .^E.C .E2 .F2 | z2 .^D.A, .F2 .E2 | z2 .C.A, .E2 .D2 |!<(! z2 z!mf! .F!<)!!f! !^!F2 |] z2 |] %19
V:3
 z2 .C2 z2 .D2 | z2 .^D2 z2 .B,2 :|!mp! z2 .E.C .E2 .D2 | .B,2 .C2 .^A,.A, .A,2 | %4
 .C.C .C2 .^G,.G, .G,2 | .C.C.D.D .C2 z2 | z2 .F.C .F2 .F2 | .^G2 .A2 .^D.D .D2 | %8
 .E.E .E2 .^D.D .D2 | .B,.B,.^D.D .E2 z2 | z2 .E.C .E2 .D2 | .B,2 .C2 .^A,.A, .A,2 | %12
 .C.C .C2 .B,.B, .B,2 | !/!.A,2 !/!.A,2 .A,2 z2 | z2 .B,.A, .B,2 .B,2 | z2 .A,.G, .^C2 .D2 | %16
 z2 .G,.F, .B,2 .G,2 | z2 z .B,!f! !^!C2 |] z2 |] %19
V:4
 A,,,4 A,,,4 | A,,,4 A,,,4 :|!mp! A,,,4 A,,,4 | A,,,4 A,,,4 | A,,,4 A,,,4 | %5
 A,,,4 A,,2!<(! (A,,/G,,/F,,/E,,/!<)! |!f!!>(! ^D,,4)!>)!!mp! =D,,4 | A,,,4 B,,,4 | B,,,4 B,,,4 | %9
!<(! A,,,2 B,,,2!<)!!mf! !^!E,,2!>(! (E,,/D,,/C,,/B,,,/!>)! |!mp! A,,,4) A,,,4 | A,,,4 A,,,4 | %12
 A,,,4 A,,,4 | A,,,4 A,,2!<(! (C,/B,,/A,,/G,,/!<)! | %14
!mf!!>(! ^F,,4) E,,2!>)!!mp!!<(! B,,/A,,/G,,/=F,,/!<)! | %15
!mf!!>(! E,,4 A,,2!>)!!<(! A,,/G,,/F,,/E,,/!<)! | D,,4 G,,2 B,,/A,,/G,,/F,,/ | %17
!<(! E,,4!<)!!f! !^!A,,2 |]!>(! E,,/D,,/C,,/B,,,/!>)! |] %19

